X: 2119
T: Sleepy Maggie
B: nick
B: to learn
M:4/4
Q: 1/4=100
K:Bdorian
V:1 
|:f2Ba fBde|f2Ba eAce|f2Ba fBde|fgaf eAce:|
 |:fBdB fBde|fBdB eAce|fBdB fBde|fgaf eAce:|
% abcbook-tune_id 6345625e3ce7acdd0ab77368


% abcbook-boost 0
% abcbook-tablature 
% abcbook-transpose 
% abcbook-lastupdated 1666007559938
% abcbook-soundfonts 
% abcbook-repeats 3


